svg/nature/grass_line.svg

<?xml version="1.0" encoding="UTF-8"?>
<svg width="24px" height="24px" viewBox="0 0 24 24" version="1.1" xmlns="http://www.w3.org/2000/svg" xmlns:xlink="http://www.w3.org/1999/xlink">
    <title>grass_line</title>
    <g id="Icon" stroke="none" stroke-width="1" fill="none" fill-rule="evenodd">
        <g id="Nature" transform="translate(-384.000000, -2.000000)" fill-rule="nonzero">
            <g id="grass_line" transform="translate(384.000000, 2.000000)">
                <path d="M24,0 L24,24 L0,24 L0,0 L24,0 Z M12.5935,23.2578 L12.5819,23.2595 L12.5109,23.295 L12.4919,23.2987 L12.4767,23.295 L12.4057,23.2595 C12.3958,23.2564 12.387,23.259 12.3821,23.2649 L12.378,23.2758 L12.3609,23.7031 L12.3659,23.7235 L12.3769,23.7357 L12.4805,23.8097 L12.4953,23.8136 L12.5071,23.8097 L12.6107,23.7357 L12.6233,23.7197 L12.6267,23.7031 L12.6096,23.2758 C12.6076,23.2657 12.601,23.2593 12.5935,23.2578 Z M12.8584,23.1453 L12.8445,23.1473 L12.6598,23.2397 L12.6499,23.2499 L12.6472,23.2611 L12.6651,23.6906 L12.6699,23.7034 L12.6784,23.7105 L12.8793,23.8032 C12.8914,23.8069 12.9022,23.803 12.9078,23.7952 L12.9118,23.7812 L12.8777,23.1665 C12.8753,23.1546 12.8674,23.147 12.8584,23.1453 Z M12.143,23.1473 C12.1332,23.1424 12.1222,23.1453 12.1156,23.1526 L12.1099,23.1665 L12.0758,23.7812 C12.0751,23.7927 12.0828,23.8019 12.0926,23.8046 L12.1083,23.8032 L12.3092,23.7105 L12.3186,23.7024 L12.3225,23.6906 L12.3404,23.2611 L12.3372,23.2485 L12.3278,23.2397 L12.143,23.1473 Z" id="MingCute"></path>
                <path d="M6.35595,3.23505 C6.6859,2.95724 7.15679,2.92229 7.52413,3.14835 C10.9795,5.27476 12.8744,7.96562 13.884,10.9273 C14.1341,11.6607 14.3289,12.4084 14.4805,13.1645 C15.5087,11.4348 17.1529,10.0618 19.6286,9.07153 C19.9851,8.92895 20.3917,9.00302 20.675,9.26213 C20.9582,9.52124 21.0682,9.91964 20.9579,10.2874 L20.7766,10.8909 C19.4165,15.419 19.0000007,16.8056 19.0000007,19.9999993 C19.0000007,20.5523 18.5523,20.9999993 18.0000007,20.9999993 C17.4477,20.9999993 17.0000007,20.5523 17.0000007,19.9999993 C17.0000007,16.9455 17.3792,15.3009 18.3697,11.9576 C17.2477,12.702 16.5088,13.5661 16.0128,14.5228 C15.2483,15.9972 15.0000007,17.8046 15.0000007,19.9999993 C15.0000007,20.5523 14.5523,20.9999993 14.0000007,20.9999993 C13.4477,20.9999993 13.0000007,20.5523 13.0000007,19.9999993 C13.0000007,17.0075 12.8707,14.1531 11.991,11.5727 C11.4017,9.84411 10.4693,8.22181 8.97289,6.77096 C9.9907,10.6317 9.99999,14.3546 10.0000007,19.7447 L10.0000007,19.9999993 C10.0000007,20.5523 9.55232,20.9999993 9.00003,20.9999993 C8.44775,20.9999993 8.00003,20.5523 8.00003,19.9999993 C8.00003,17.7103 7.99081,15.6287 7.42332,13.8695 C7.09668,12.8569 6.58351,11.9498 5.74038,11.1957 C6.66077,14.3485 7.00003,16.6834 7.00003,19.9999993 C7.00003,20.5523 6.55232,20.9999993 6.00003,20.9999993 C5.44775,20.9999993 5.00003,20.5523 5.00003,19.9999993 C5.00003,16.1355 4.52751,13.7447 3.05135,9.31623 C2.92822,8.94684 3.0307,8.53956 3.314,8.27243 C3.5973,8.00531 4.0099,7.92692 4.37142,8.07153 C5.76592,8.62933 6.82583,9.37314 7.62607,10.252 C7.35394,8.25584 6.88379,6.40197 6.07156,4.3714 C5.91137,3.97092 6.026,3.51286 6.35595,3.23505 Z" id="路径" fill="#09244B"></path>
            </g>
        </g>
    </g>
</svg>

<svg xmlns="http://www.w3.org/2000/svg" width="24" height="24"><g fill="none" fill-rule="nonzero"><path d="M24 0v24H0V0h24ZM12.594 23.258l-.012.002-.071.035-.02.004-.014-.004-.071-.036c-.01-.003-.019 0-.024.006l-.004.01-.017.428.005.02.01.013.104.074.015.004.012-.004.104-.074.012-.016.004-.017-.017-.427c-.002-.01-.009-.017-.016-.018Zm.264-.113-.014.002-.184.093-.01.01-.003.011.018.43.005.012.008.008.201.092c.012.004.023 0 .029-.008l.004-.014-.034-.614c-.003-.012-.01-.02-.02-.022Zm-.715.002a.023.023 0 0 0-.027.006l-.006.014-.034.614c0 .012.007.02.017.024l.015-.002.201-.093.01-.008.003-.011.018-.43-.003-.012-.01-.01-.184-.092Z"/><path fill="#09244B" d="M6.356 3.235a1 1 0 0 1 1.168-.087c3.456 2.127 5.35 4.818 6.36 7.78.25.733.445 1.48.596 2.236 1.029-1.73 2.673-3.102 5.149-4.092a1 1 0 0 1 1.329 1.215l-.181.604C19.417 15.419 19 16.806 19 20a1 1 0 1 1-2 0c0-3.055.38-4.7 1.37-8.042-1.122.744-1.861 1.608-2.357 2.565C15.248 15.997 15 17.805 15 20a1 1 0 1 1-2 0c0-2.992-.13-5.847-1.009-8.427-.59-1.729-1.522-3.351-3.018-4.802C9.99 10.631 10 14.355 10 19.745V20a1 1 0 1 1-2 0c0-2.29-.01-4.371-.577-6.13-.326-1.013-.84-1.92-1.683-2.674C6.66 14.349 7 16.683 7 20a1 1 0 1 1-2 0c0-3.864-.472-6.255-1.949-10.684a1 1 0 0 1 1.32-1.244c1.395.557 2.455 1.301 3.255 2.18a24.109 24.109 0 0 0-1.554-5.88 1 1 0 0 1 .284-1.137Z"/></g></svg>
